src/assets/bold/lm-square-dashed-text-bold.svg

<svg width="24" height="24" viewBox="0 0 24 24" fill="none" xmlns="http://www.w3.org/2000/svg" fill="currentColor">
<path d="M1.71556 22.5331C1.79842 22.6026 1.887 22.6655 1.98049 22.721C2.06161 22.7692 2.14643 22.8118 2.23442 22.8482C2.47024 22.946 2.72882 23 3 23H6.45V21.8H3C2.88931 21.8 2.78675 21.7782 2.69409 21.7398L2.38741 21.6126L2.26023 21.3059C2.22181 21.2132 2.2 21.1107 2.2 21V17.55H1V21C1 21.2712 1.05397 21.5298 1.15176 21.7656C1.18825 21.8536 1.23084 21.9384 1.279 22.0195C1.3345 22.113 1.3974 22.2016 1.4669 22.2844C1.54236 22.3744 1.62559 22.4576 1.71556 22.5331ZM15.45 21.8V23H8.55V21.8H15.45ZM21.8 8.55H23V15.45H21.8V8.55ZM8.55 2.2V1H15.45V2.2H8.55ZM2.2 6.45H1V3C1 2.72882 1.05397 2.47024 1.15176 2.23442C1.18825 2.14643 1.23084 2.06161 1.279 1.98049C1.3345 1.887 1.3974 1.79842 1.4669 1.71556C1.54236 1.62559 1.62559 1.54236 1.71556 1.4669C1.79842 1.3974 1.887 1.3345 1.98049 1.279C2.06161 1.23084 2.14643 1.18825 2.23442 1.15176C2.47024 1.05397 2.72882 1 3 1H6.45V2.2H3C2.88932 2.2 2.78675 2.22181 2.69409 2.26023L2.38741 2.38741L2.26023 2.69409C2.22181 2.78675 2.2 2.88931 2.2 3V6.45ZM2.2 8.55H1V15.45H2.2V8.55ZM17.55 1V2.2H21C21.1107 2.2 21.2132 2.22181 21.3059 2.26023L21.6126 2.38741L21.7398 2.69409C21.7782 2.78675 21.8 2.88932 21.8 3V6.45H23V3C23 2.72882 22.946 2.47024 22.8482 2.23442C22.8118 2.14644 22.7692 2.06161 22.721 1.98049C22.6655 1.887 22.6026 1.79842 22.5331 1.71556C22.4576 1.62559 22.3744 1.54236 22.2844 1.4669C22.2016 1.3974 22.113 1.3345 22.0195 1.279C21.9384 1.23084 21.8536 1.18825 21.7656 1.15176C21.5298 1.05397 21.2712 1 21 1H17.55ZM23 17.55H21.8V21C21.8 21.1107 21.7782 21.2132 21.7398 21.3059L21.6126 21.6126L21.3059 21.7398C21.2132 21.7782 21.1107 21.8 21 21.8H17.55V23H21C21.2712 23 21.5298 22.946 21.7656 22.8482C21.8536 22.8118 21.9384 22.7692 22.0195 22.721C22.113 22.6655 22.2016 22.6026 22.2844 22.5331C22.3744 22.4576 22.4576 22.3744 22.5331 22.2844C22.6026 22.2016 22.6655 22.113 22.721 22.0195C22.7692 21.9384 22.8118 21.8536 22.8482 21.7656C22.946 21.5298 23 21.2712 23 21V17.55ZM6 7.03435C6 6.73924 6.25734 6.5 6.57479 6.5H17.4252C17.7427 6.5 18 6.73924 18 7.03435V8.43893C18 8.73405 17.7427 8.97328 17.4252 8.97328C17.1078 8.97328 16.8504 8.73405 16.8504 8.43893V7.5687H12.6706V17.2176H14.1459C14.4422 17.2176 14.6824 17.5046 14.6824 17.8588C14.6824 18.2129 14.4422 18.5 14.1459 18.5H9.85412C9.55783 18.5 9.31765 18.2129 9.31765 17.8588C9.31765 17.5046 9.55783 17.2176 9.85412 17.2176H11.3294V7.5687H7.14958V8.43893C7.14958 8.73405 6.89224 8.97328 6.57479 8.97328C6.25734 8.97328 6 8.73405 6 8.43893V7.03435Z" fill="black"/>
</svg>

<svg xmlns="http://www.w3.org/2000/svg" width="24" height="24" fill="currentColor" viewBox="0 0 24 24">
  <path d="M1.716 22.533A2.005 2.005 0 0 0 3 23h3.45v-1.2H3a.794.794 0 0 1-.306-.06l-.307-.127-.127-.307A.794.794 0 0 1 2.2 21v-3.45H1V21a1.994 1.994 0 0 0 .716 1.533ZM15.45 21.8V23h-6.9v-1.2h6.9ZM21.8 8.55H23v6.9h-1.2v-6.9ZM8.55 2.2V1h6.9v1.2h-6.9ZM2.2 6.45H1V3a1.994 1.994 0 0 1 1.234-1.848C2.47 1.054 2.73 1 3 1h3.45v1.2H3a.794.794 0 0 0-.306.06l-.307.127-.127.307A.794.794 0 0 0 2.2 3v3.45Zm0 2.1H1v6.9h1.2v-6.9ZM17.55 1v1.2H21c.11 0 .213.022.306.06l.307.127.127.307c.038.093.06.195.06.306v3.45H23V3a1.994 1.994 0 0 0-1.234-1.848A1.994 1.994 0 0 0 21 1h-3.45ZM23 17.55h-1.2V21c0 .11-.022.213-.06.306l-.127.307-.307.127a.795.795 0 0 1-.306.06h-3.45V23H21a1.994 1.994 0 0 0 1.848-1.234c.098-.236.152-.495.152-.766v-3.45ZM6 7.034c0-.295.257-.534.575-.534h10.85c.318 0 .575.24.575.534V8.44c0 .295-.257.534-.575.534-.317 0-.575-.239-.575-.534v-.87h-4.18v9.649h1.476c.296 0 .536.287.536.64 0 .355-.24.642-.536.642H9.854c-.296 0-.536-.287-.536-.641 0-.354.24-.641.536-.641h1.475v-9.65H7.15v.87c0 .296-.257.535-.574.535-.318 0-.575-.239-.575-.534V7.034Z"/>
</svg>
